X:1
T:The Pig's Back
D:The boys in the gap: Time of change (2000)
R:Polka
C:Timmy Mc Carthy
M:2/2
L:1/8
K:D
|: "D" A2AF GFE2 | DEFG AdAA | A2AF GFE2 | "G" DEFD "A" EFD2 :|
|: "Em" GEGE DEFD | GEGE DEF2 | GEGE DEFD | "G" DEFD "A" EFD2 :|
